assets/img/braze_icons/cube-outline.svg

<svg fill="none" height="24" viewBox="0 0 24 24" width="24" xmlns="http://www.w3.org/2000/svg"><g fill="#801ed7"><path d="m12.4029 1.18505c-.2658-.05467-.54-.05467-.8058 0-.3073.06319-.5819.21702-.8003.33931l-.0595.03325-1.47294.81832c-.48278.26821-.65673.87701-.38851 1.3598.26821.48278.87701.65672 1.35975.38851l1.473-.81832c.1516-.08419.2289-.12672.2866-.15456l.0048-.00229.0048.00229c.0577.02784.135.07037.2866.15456l1.473.81832c.4827.26821 1.0915.09427 1.3598-.38851.2682-.48279.0942-1.09159-.3886-1.3598l-1.4729-.81832-.0595-.03325c-.2184-.12229-.493-.27612-.8003-.33931z"/><path d="m19.2356 4.87593c-.4827-.26822-1.0915-.09427-1.3598.38851-.2682.48279-.0942 1.09159.3886 1.3598l.6764.37579-.6764.37575c-.4828.26821-.6567.87702-.3885 1.3598s.877.65673 1.3598.38851l.7643-.42461v.8006c0 .55232.4477 1.00002 1 1.00002s1-.4477 1-1.00002v-1.55855l.0002-.07213c.0006-.18278.0014-.39814-.0325-.61718.0627-.24015.0366-.50384-.0935-.73792-.1387-.24971-.3685-.41679-.6249-.48281-.1749-.13592-.3635-.23976-.5235-.32789l-.0631-.03488z"/><path d="m5.73565 6.62424c.48278-.26821.65672-.87701.38851-1.3598-.26821-.48278-.87702-.65672-1.3598-.38851l-1.42703.79279-.06314.03488c-.16003.08814-.34858.19199-.52351.32793-.25632.06605-.48608.23312-.62478.48277-.12999.23399-.15612.49758-.09356.73765-.03397.21913-.03318.4346-.03252.61745l.00018.07213v1.55856c0 .55231.44772 1.00001 1 1.00001.55229 0 1-.4477 1-1.00001v-.80067l.76442.42467c.48278.26822 1.09158.09427 1.3598-.38851.26821-.48278.09427-1.09159-.38852-1.3598l-.67641-.37578z"/><path d="m4 14.5001c0-.5523-.44771-1-1-1-.55228 0-1 .4477-1 1v1.5585l-.00018.0722c-.00096.2638-.00217.5956.10115.9083.08933.2704.23535.5185.4283.7279.22316.2422.51376.4022.74489.5296l.06317.0348 1.42703.7928c.48278.2683 1.09159.0943 1.3598-.3885s.09427-1.0916-.38851-1.3598l-1.42703-.7928c-.15996-.0888-.24162-.1347-.29892-.1712l-.00483-.0031-.00037-.0057c-.00408-.0678-.0045-.1615-.0045-.3445z"/><path d="m22 14.5001c0-.5523-.4477-1-1-1s-1 .4477-1 1v1.5585c0 .183-.0004.2767-.0045.3445l-.0004.0057-.0048.0031c-.0573.0365-.139.0824-.2989.1712l-1.427.7928c-.4828.2682-.6568.877-.3886 1.3598.2683.4828.8771.6568 1.3598.3885l1.4271-.7928.0631-.0348c.2311-.1273.5218-.2874.7449-.5296.193-.2094.339-.4575.4283-.7279.1034-.3127.1021-.6445.1012-.9083l-.0002-.0722z"/><path d="m10.2356 19.8759c-.48274-.2682-1.09154-.0942-1.35975.3885-.26822.4828-.09427 1.0916.38851 1.3598l1.47294.8184.0595.0332c.1504.0842.3275.1834.5236.2577.1784.1653.4172.2664.6797.2664.2624 0 .5013-.1011.6797-.2665.196-.0742.373-.1734.5234-.2576l.0595-.0332 1.4729-.8184c.4828-.2682.6568-.877.3886-1.3598-.2683-.4827-.8771-.6567-1.3598-.3885l-.7643.4246v-.8006c0-.5522-.4478-1-1-1-.5523 0-1 .4478-1 1v.8007z"/><path d="m10.2357 9.87578c-.48278-.26821-1.09158-.09427-1.3598.38852-.26821.4828-.09427 1.0916.38852 1.3598l1.73568.9642v1.9116c0 .5523.4477 1 1 1 .5522 0 1-.4477 1-1v-1.9116l1.7356-.9642c.4828-.2682.6567-.877.3885-1.3598-.2682-.48279-.877-.65673-1.3598-.38852l-1.7643.98022z"/></g></svg>

<svg width="24" height="24" viewBox="0 0 24 24" fill="none" xmlns="http://www.w3.org/2000/svg">
<path d="M12.4029 1.18505C12.1371 1.13038 11.8629 1.13038 11.5971 1.18505C11.2898 1.24824 11.0152 1.40207 10.7968 1.52436L10.7373 1.55761L9.26436 2.37593C8.78158 2.64414 8.60763 3.25294 8.87585 3.73573C9.14406 4.21851 9.75286 4.39245 10.2356 4.12424L11.7086 3.30592C11.8602 3.22173 11.9375 3.1792 11.9952 3.15136L12 3.14907L12.0048 3.15136C12.0625 3.1792 12.1398 3.22173 12.2914 3.30592L13.7644 4.12424C14.2471 4.39245 14.8559 4.21851 15.1242 3.73573C15.3924 3.25294 15.2184 2.64414 14.7356 2.37593L13.2627 1.55761L13.2032 1.52436C12.9848 1.40207 12.7102 1.24824 12.4029 1.18505Z" fill="#801ED7"/>
<path d="M19.2356 4.87593C18.7529 4.60771 18.1441 4.78166 17.8758 5.26444C17.6076 5.74723 17.7816 6.35603 18.2644 6.62424L18.9408 7.00003L18.2644 7.37578C17.7816 7.64399 17.6077 8.2528 17.8759 8.73558C18.1441 9.21836 18.7529 9.39231 19.2357 9.12409L20 8.69948V9.50008C20 10.0524 20.4477 10.5001 21 10.5001C21.5523 10.5001 22 10.0524 22 9.50008V7.94153L22.0002 7.8694C22.0008 7.68662 22.0016 7.47126 21.9677 7.25222C22.0304 7.01207 22.0043 6.74838 21.8742 6.5143C21.7355 6.26459 21.5057 6.09751 21.2493 6.03149C21.0744 5.89557 20.8858 5.79173 20.7258 5.7036L20.6627 5.66872L19.2356 4.87593Z" fill="#801ED7"/>
<path d="M5.73565 6.62424C6.21843 6.35603 6.39237 5.74723 6.12416 5.26444C5.85595 4.78166 5.24714 4.60772 4.76436 4.87593L3.33733 5.66872L3.27419 5.7036C3.11416 5.79174 2.92561 5.89559 2.75068 6.03153C2.49436 6.09758 2.2646 6.26465 2.1259 6.5143C1.99591 6.74829 1.96978 7.01188 2.03234 7.25195C1.99837 7.47108 1.99916 7.68655 1.99982 7.8694L2 7.94153V9.50009C2 10.0524 2.44772 10.5001 3 10.5001C3.55229 10.5001 4 10.0524 4 9.50009V8.69942L4.76442 9.12409C5.2472 9.39231 5.856 9.21836 6.12422 8.73558C6.39243 8.2528 6.21849 7.64399 5.7357 7.37578L5.05929 7L5.73565 6.62424Z" fill="#801ED7"/>
<path d="M4 14.5001C4 13.9478 3.55229 13.5001 3 13.5001C2.44772 13.5001 2 13.9478 2 14.5001V16.0586L1.99982 16.1308C1.99886 16.3946 1.99765 16.7264 2.10097 17.0391C2.1903 17.3095 2.33632 17.5576 2.52927 17.767C2.75243 18.0092 3.04303 18.1692 3.27416 18.2966L3.33733 18.3314L4.76436 19.1242C5.24714 19.3925 5.85595 19.2185 6.12416 18.7357C6.39237 18.2529 6.21843 17.6441 5.73565 17.3759L4.30862 16.5831C4.14866 16.4943 4.067 16.4484 4.0097 16.4119L4.00487 16.4088L4.0045 16.4031C4.00042 16.3353 4 16.2416 4 16.0586V14.5001Z" fill="#801ED7"/>
<path d="M22 14.5001C22 13.9478 21.5523 13.5001 21 13.5001C20.4477 13.5001 20 13.9478 20 14.5001V16.0586C20 16.2416 19.9996 16.3353 19.9955 16.4031L19.9951 16.4088L19.9903 16.4119C19.933 16.4484 19.8513 16.4943 19.6914 16.5831L18.2644 17.3759C17.7816 17.6441 17.6076 18.2529 17.8758 18.7357C18.1441 19.2185 18.7529 19.3925 19.2356 19.1242L20.6627 18.3314L20.7258 18.2966C20.9569 18.1693 21.2476 18.0092 21.4707 17.767C21.6637 17.5576 21.8097 17.3095 21.899 17.0391C22.0024 16.7264 22.0011 16.3946 22.0002 16.1308L22 16.0586V14.5001Z" fill="#801ED7"/>
<path d="M10.2356 19.8759C9.75286 19.6077 9.14406 19.7817 8.87585 20.2644C8.60763 20.7472 8.78158 21.356 9.26436 21.6242L10.7373 22.4426L10.7968 22.4758C10.9472 22.56 11.1243 22.6592 11.3204 22.7335C11.4988 22.8988 11.7376 22.9999 12.0001 22.9999C12.2625 22.9999 12.5014 22.8988 12.6798 22.7334C12.8758 22.6592 13.0528 22.56 13.2032 22.4758L13.2627 22.4426L14.7356 21.6242C15.2184 21.356 15.3924 20.7472 15.1242 20.2644C14.8559 19.7817 14.2471 19.6077 13.7644 19.8759L13.0001 20.3005V19.4999C13.0001 18.9477 12.5523 18.4999 12.0001 18.4999C11.4478 18.4999 11.0001 18.9477 11.0001 19.4999V20.3006L10.2356 19.8759Z" fill="#801ED7"/>
<path d="M10.2357 9.87578C9.75292 9.60757 9.14412 9.78151 8.8759 10.2643C8.60769 10.7471 8.78163 11.3559 9.26442 11.6241L11.0001 12.5883V14.4999C11.0001 15.0522 11.4478 15.4999 12.0001 15.4999C12.5523 15.4999 13.0001 15.0522 13.0001 14.4999V12.5883L14.7357 11.6241C15.2185 11.3559 15.3924 10.7471 15.1242 10.2643C14.856 9.78151 14.2472 9.60757 13.7644 9.87578L12.0001 10.856L10.2357 9.87578Z" fill="#801ED7"/>
</svg>
